rospo-icon-theme-classic-common/22x22/apps/preferences-ubuntu-panel.svg

<svg height="22" viewBox="0 0 22 22" width="22" xmlns="http://www.w3.org/2000/svg"><path d="m2 2c-.554 0-1 .446-1 1v15 1c0 .554.446 1 1 1h18c .554 0 1-.446 1-1v-1-15c0-.554-.446-1-1-1z" fill="#8b346f"/><path d="m2 2c-.554 0-1 .446-1 1v15 1c0 .554.446 1 1 1h3v-18z" opacity=".2"/><path d="m2 2c-.554 0-1 .446-1 1v .5c0-.554.446-1 1-1h18c .554 0 1 .446 1 1v-.5c0-.554-.446-1-1-1z" fill="#fff" opacity=".1"/><path d="m1 19v .5c0 .554.446 1 1 1h18c .554 0 1-.446 1-1v-.5c0 .554-.446 1-1 1h-18c-.554 0-1-.446-1-1z" opacity=".2"/><g opacity=".2"><rect height="2" rx=".25" width="2" x="2" y="3.5"/><rect height="2" rx=".25" width="2" x="2" y="6.5"/><rect height="2" rx=".25" width="2" x="2" y="9.5"/><rect height="2" rx=".25" width="2" x="2" y="12.5"/></g><g fill="#fff"><rect height="2" rx=".25" width="2" x="2" y="3"/><rect height="2" rx=".25" width="2" x="2" y="6"/><rect height="2" rx=".25" width="2" x="2" y="9"/><rect height="2" rx=".25" width="2" x="2" y="12"/></g></svg>

<svg xmlns="http://www.w3.org/2000/svg" width="22" height="22" version="1.1" viewBox="0 0 22 22">
 <path style="fill:#8b346f" d="M 2,2 C 1.446,2 1,2.446 1,3 l 0,15 0,1 c 0,0.554 0.446,1 1,1 l 18,0 c 0.554,0 1,-0.446 1,-1 L 21,18 21,3 C 21,2.446 20.554,2 20,2 L 2,2 Z"/>
 <path style="opacity:0.2" d="M 2,2 C 1.446,2 1,2.446 1,3 l 0,15 0,1 c 0,0.554 0.446,1 1,1 L 5,20 5,2 2,2 Z"/>
 <path style="opacity:0.1;fill:#ffffff" d="M 2,2 C 1.446,2 1,2.446 1,3 l 0,0.5 c 0,-0.554 0.446,-1 1,-1 l 18,0 c 0.554,0 1,0.446 1,1 L 21,3 C 21,2.446 20.554,2 20,2 Z"/>
 <path style="opacity:0.2" d="m 1,19 0,0.5 c 0,0.554 0.446,1 1,1 l 18,0 c 0.554,0 1,-0.446 1,-1 L 21,19 c 0,0.554 -0.446,1 -1,1 L 2,20 C 1.446,20 1,19.554 1,19 Z"/>
 <g style="opacity:0.2" transform="translate(-2,-2.5)">
  <rect width="2" height="2" x="4" y="6" rx=".25" ry=".25"/>
  <rect width="2" height="2" x="4" y="9" rx=".25" ry=".25"/>
  <rect width="2" height="2" x="4" y="12" rx=".25" ry=".25"/>
  <rect width="2" height="2" x="4" y="15" rx=".25" ry=".25"/>
 </g>
 <rect style="fill:#ffffff" width="2" height="2" x="2" y="3" rx=".25" ry=".25"/>
 <rect style="fill:#ffffff" width="2" height="2" x="2" y="6" rx=".25" ry=".25"/>
 <rect style="fill:#ffffff" width="2" height="2" x="2" y="9" rx=".25" ry=".25"/>
 <rect style="fill:#ffffff" width="2" height="2" x="2" y="12" rx=".25" ry=".25"/>
</svg>
